dist/icons/svgs/octagon-outline.svg

<svg xmlns="http://www.w3.org/2000/svg" width="24" height="24" fill="currentcolor" class="icon-octagon-outline" viewBox="0 0 24 24">
  <path d="M8.79688 4.1875L4.14844 8.83594C3.95312 8.99219 3.875 9.26562 3.875 9.5V14.5391C3.875 14.7734 3.95312 15.0078 4.14844 15.2031L2.82031 16.5312L4.14844 15.2031L8.79688 19.8516C8.99219 20.0469 9.22656 20.125 9.46094 20.125H14.5C14.7344 20.125 15.0078 20.0469 15.1641 19.8516L19.8125 15.2031C20.0078 15.0078 20.0859 14.7734 20.0859 14.5391V9.5C20.0859 9.26562 20.0078 8.99219 19.8125 8.83594L15.1641 4.1875C15.0078 3.99219 14.7344 3.91406 14.5 3.91406H9.46094C9.22656 3.91406 8.99219 3.99219 8.79688 4.1875ZM2 14.5391V9.5C2 8.75781 2.27344 8.05469 2.82031 7.50781L7.46875 2.85938C8.01562 2.3125 8.71875 2.03906 9.46094 2.03906H14.5C15.2422 2.03906 15.9453 2.3125 16.4922 2.85938L21.1406 7.50781C21.6875 8.05469 21.9609 8.75781 21.9609 9.5V14.5391C21.9609 15.2812 21.6875 15.9844 21.1406 16.5312L16.4922 21.1797C15.9453 21.7266 15.2422 22 14.5 22H9.46094C8.71875 22 8.01562 21.7266 7.46875 21.1797L2.82031 16.5312C2.27344 15.9844 2 15.2812 2 14.5391Z"/>
</svg>

<svg xmlns="http://www.w3.org/2000/svg" width="24" height="24" fill="currentColor" class="icon-octagon-outline" viewBox="0 0 24 24">
  <path d="M8.797 4.188 4.148 8.836c-.195.156-.273.43-.273.664v5.04c0 .233.078.468.273.663L2.82 16.531l1.328-1.328 4.649 4.649c.195.195.43.273.664.273H14.5c.234 0 .508-.078.664-.273l4.649-4.649a.92.92 0 0 0 .273-.664V9.5c0-.234-.078-.508-.273-.664l-4.649-4.648c-.156-.196-.43-.274-.664-.274H9.46a.92.92 0 0 0-.663.273M2 14.539V9.5c0-.742.273-1.445.82-1.992l4.65-4.649a2.78 2.78 0 0 1 1.992-.82H14.5c.742 0 1.445.273 1.992.82l4.649 4.649c.547.547.82 1.25.82 1.992v5.04c0 .741-.273 1.444-.82 1.991l-4.649 4.649c-.547.547-1.25.82-1.992.82H9.46a2.78 2.78 0 0 1-1.991-.82L2.82 16.53A2.78 2.78 0 0 1 2 14.54"/>
</svg>
